X: 2
T: The Pretty Girls Of Mayo
R: reel
M: 4/4
L: 1/8
K: Gmaj
DG~G2 A2de|fd~d2 fdcA|DG~G2 A2de|1 fdcA BGAF:|2 fdcA AGBd||g2ge fdde|fdge fdde|~g3e fdde|fdcA AG~G2|g2ge fdde|fdge fdd^c|defg abag|fdcA BGAF||


Tune 1954	Setting 29463

